X:1
T:Veni, O Celeste
T:Veni, O Celeste
T:Giovanni Pietro Biandra
T:Source : Madrigaletti a 1, 2 e 3 voci. Libro priomo---Venezia---B.Magni (Gardano)---1626. Editor : André Vierendeels (05/03/15). 
T:Note : Original clefs : C3, F4
C:Giovanni Pietro Biandra
%%score 1 2
L:1/8
Q:1/4=89
M:4/4
K:C
V:1 treble nm="Alto" snm="A"
V:2 bass nm="BC" snm="BC"
V:1
 D4 B,4 | z2 G2 EGFE | D2 D2 z2 FF | F2 FG G4 | F2 A2 FEDD | G6 ED | C3 C B,/A,/B,/G,/ A,/B,/C/D/ | %7
w: Ve- ni,|ve- ni'O Ce- le- ste|Spir- to em- pi|que- sto mio co-|re del tuo spi- ran- te,|del tuo spi-|ran- t'ar- do- * * * * * * *|
 E/F/G/A/ F/G/E/F/ E/C/D/E/ F/E/F/D/ | E4 D4 | z2 G2 E2 E2 | z AAG ^F2 FD | B,2 B,E ^C2 C2 | %12
w: |* re,|tu l'ar- di|e tu s'in- fiam- ma, tu|l'ar- di, tu l'ar- di,|
 z DDC B,/C/D/E/ ^F/G/A/D/ | E2 E2 z2 F2 | F2 F2 F4- | F2 E2 TE4 | D4 z EEE | B,4 E2 EE | %18
w: et tu s'in- fiam- * * * * * * *|* ma di|co- si San-|* ta fiam-|ma, che tua mer-|ce, che tua mer-|
 F2 A2 AGG^F | G2 G2 z2 DC | B,2 C4 ^C2 | D2 D2 z2 GF | E2 F4 ^F2 | G2 G2 z2 A2- | A2 GF F>G A<G | %25
w: ce po- tro quin- di spe-|ra- re, que- sti|miei Sa- cri'af-|fet- ti, que- sti|miei Sa- cri'af-|fet- ti, hog-|* gi spie- ga- * * *|
 D4 z2 D2 | D2 C2 B,/C/D/B,/ C/A,/B,/C/ | D/E/D/C/ B,/C/B,/A,/ G,/A,/B,/C/ D/A,/B,/C/ | %28
w: re, hog-|gi spe- ga- * * * * * * *||
 D/C/D/E/ F/D/E/F/ G/F/G/E/ F/G/A/E/ | ^F/G/A/G/ F/E/D/C/ D/C/B,/C/ D/B,/C/A,/ | %30
w: ||
 B,/A,/G,/A,/ B,/A,/B,/G,/ TA,4 | G,8 |] %32
w: |re.|
V:2
 D,4 G,,4 | G,4 C,2 D,2 | G,4 F,4 | _B,,2 A,,2 C,4 | F,,4 D,4 | G,4 C,4 | A,,4 E,4 | C,4 G,2 D,2 | %8
 A,,4 D,2 G,2 | E,2 E,2 A,3 G, | ^F,3 E, D,4 | G,,3 ^G,, A,,4 | D,4 G,2 D,2 | ^C,4 D,3 E, | %14
 F,3 G, A,2 _B,2 | G,4 A,4 | D,4 E,4 | ^G,4 A,4 | D,4 C,2 D,2 | G,,4 D,4 | E,4 F,2 A,2 | %21
 D,3 C, B,,2 G,,2 | A,,4 _B,,2 A,,2 | G,,4 F,,4 | D,4 A,,4 | D,2 E,2 ^F,4 | G,4 G,,4 | G,,4 G,4 | %28
 F,4 E,4 | D,8 | D,8 | G,,8 |] %32

